svgs/light/table-layout.svg

<svg xmlns="http://www.w3.org/2000/svg" viewBox="0 0 512 512"><!-- Font Awesome Pro 6.0.0-alpha2 by @fontawesome - https://fontawesome.com License - https://fontawesome.com/license (Commercial License) --><path d="M448 32H64C28.654 32 0 60.652 0 96V416C0 451.346 28.654 480 64 480H448C483.346 480 512 451.346 512 416V96C512 60.652 483.346 32 448 32ZM160 448H64C46.326 448 32 433.672 32 416V202.625H160V448ZM480 416C480 433.672 465.674 448 448 448H192V202.625H480V416ZM480 170.625H32V96C32 78.326 46.326 64 64 64H448C465.674 64 480 78.326 480 96V170.625Z"/></svg>

<svg xmlns="http://www.w3.org/2000/svg" viewBox="0 0 512 512"><!--! Font Awesome Pro 6.4.0 by @fontawesome - https://fontawesome.com License - https://fontawesome.com/license (Commercial License) Copyright 2023 Fonticons, Inc. --><path d="M448 64c17.7 0 32 14.3 32 32v64L32 160l0-64c0-17.7 14.3-32 32-32l384 0zM32 416l0-224 128 0 0 256H64c-17.7 0-32-14.3-32-32zm160 32l0-256 288 0 0 224c0 17.7-14.3 32-32 32H192zM64 32C28.7 32 0 60.7 0 96L0 416c0 35.3 28.7 64 64 64l384 0c35.3 0 64-28.7 64-64l0-320c0-35.3-28.7-64-64-64L64 32z"/></svg>
